src/icons/run-step.svg

<svg viewBox="0 0 32 29" fill="none" xmlns="http://www.w3.org/2000/svg">
<path d="M5.05263 0H26.9474C29.7432 0 32 2.25684 32 5.05263V23.5789C32 26.3747 29.7432 28.6316 26.9474 28.6316H5.05263C2.25684 28.6316 0 26.3747 0 23.5789V5.05263C0 2.25684 2.25684 0 5.05263 0ZM5.05263 1.68421C3.2 1.68421 1.68421 3.2 1.68421 5.05263H30.3158C30.3158 3.2 28.8 1.68421 26.9474 1.68421H5.05263ZM1.68421 23.5789C1.68421 25.4316 3.2 26.9474 5.05263 26.9474H26.9474C28.8 26.9474 30.3158 25.4316 30.3158 23.5789V6.73684H1.68421V23.5789ZM25.2632 23.5789H16.8421V21.8947H25.2632V23.5789ZM6.73684 10.9474L7.93263 9.75158L15.0063 16.8421L7.93263 23.9326L6.73684 22.7368L12.6316 16.8421L6.73684 10.9474Z" fill="#4F5162"/>
</svg>

<svg viewBox="0 0 32 29" fill="none" xmlns="http://www.w3.org/2000/svg"><path d="M5.053 0h21.894A5.046 5.046 0 0132 5.053v18.526a5.046 5.046 0 01-5.053 5.053H5.053A5.046 5.046 0 010 23.579V5.053A5.046 5.046 0 015.053 0zm0 1.684a3.378 3.378 0 00-3.369 3.369h28.632a3.378 3.378 0 00-3.369-3.369H5.053zM1.684 23.58a3.378 3.378 0 003.369 3.368h21.894a3.378 3.378 0 003.369-3.368V6.737H1.684v16.842zm23.58 0h-8.422v-1.684h8.421v1.684zM6.736 10.947l1.196-1.195 7.073 7.09-7.073 7.09-1.196-1.195 5.895-5.895-5.895-5.895z" fill="#4F5162"/></svg>
